flaticon/web-design/tools.svg

<svg xmlns="http://www.w3.org/2000/svg" width="32" height="32" viewBox="0 0 24 24">
    <path d="M 23.890625 17.320312 L 20.636719 14.066406 C 20.558594 13.988281 20.449219 13.949219 20.339844 13.960938 L 17.226562 14.242188 C 17.140625 14.25 17.058594 14.289062 16.996094 14.351562 L 16.695312 14.652344 L 13.21875 11.175781 L 16.777344 7.613281 L 17.363281 8.195312 C 17.433594 8.269531 17.53125 8.308594 17.628906 8.308594 C 17.722656 8.308594 17.820312 8.269531 17.890625 8.195312 L 20.296875 5.792969 C 20.328125 5.761719 20.355469 5.722656 20.371094 5.683594 L 21.785156 2.570312 C 21.851562 2.429688 21.820312 2.261719 21.710938 2.152344 L 20.578125 1.019531 C 20.46875 0.910156 20.300781 0.878906 20.160156 0.945312 L 17.046875 2.359375 C 17.007812 2.378906 16.96875 2.402344 16.9375 2.433594 L 14.535156 4.839844 C 14.386719 4.984375 14.386719 5.222656 14.535156 5.367188 L 15.117188 5.953125 L 11.558594 9.511719 L 9.449219 7.402344 L 9.75 7.105469 C 9.8125 7.042969 9.847656 6.960938 9.855469 6.871094 L 10.140625 3.761719 C 10.148438 3.652344 10.109375 3.539062 10.03125 3.460938 L 6.78125 0.210938 C 6.632812 0.0625 6.394531 0.0625 6.25 0.210938 L 4.835938 1.625 C 4.6875 1.769531 4.6875 2.007812 4.835938 2.152344 L 7.257812 4.574219 L 4.675781 7.15625 L 2.253906 4.734375 C 2.109375 4.589844 1.871094 4.589844 1.722656 4.734375 L 0.308594 6.148438 C 0.164062 6.296875 0.164062 6.53125 0.308594 6.679688 L 3.5625 9.933594 C 3.632812 10.003906 3.726562 10.042969 3.828125 10.042969 C 3.839844 10.042969 3.851562 10.042969 3.863281 10.039062 L 6.972656 9.757812 C 7.058594 9.75 7.140625 9.710938 7.203125 9.648438 L 7.503906 9.347656 L 9.613281 11.457031 L 8.152344 12.917969 L 7.710938 12.476562 C 7.601562 12.367188 7.4375 12.335938 7.296875 12.394531 L 5.324219 13.242188 L 5.316406 13.242188 C 5.316406 13.246094 5.3125 13.246094 5.308594 13.246094 C 5.300781 13.25 5.292969 13.253906 5.285156 13.257812 C 5.28125 13.261719 5.277344 13.265625 5.273438 13.265625 C 5.265625 13.269531 5.261719 13.273438 5.253906 13.277344 C 5.25 13.28125 5.246094 13.285156 5.238281 13.289062 C 5.234375 13.292969 5.230469 13.296875 5.226562 13.300781 C 5.21875 13.304688 5.214844 13.3125 5.207031 13.316406 C 5.203125 13.320312 5.203125 13.320312 5.199219 13.324219 L 0.816406 17.707031 C 0.816406 17.710938 0.8125 17.710938 0.808594 17.714844 C 0.804688 17.71875 0.800781 17.726562 0.792969 17.730469 C 0.789062 17.738281 0.785156 17.742188 0.78125 17.746094 C 0.78125 17.75 0.777344 17.757812 0.773438 17.761719 C 0.769531 17.769531 0.761719 17.773438 0.757812 17.78125 C 0.757812 17.785156 0.753906 17.789062 0.753906 17.789062 L 0.75 17.796875 L 0.046875 19.0625 C -0.0351562 19.210938 -0.0078125 19.390625 0.109375 19.511719 L 3.222656 22.621094 C 3.292969 22.691406 3.390625 22.730469 3.484375 22.730469 C 3.546875 22.730469 3.609375 22.714844 3.667969 22.683594 L 4.941406 21.976562 C 4.945312 21.976562 4.945312 21.972656 4.949219 21.972656 C 4.957031 21.96875 4.964844 21.964844 4.96875 21.957031 C 4.976562 21.957031 4.980469 21.953125 4.984375 21.949219 C 4.988281 21.945312 4.992188 21.941406 5 21.9375 C 5.003906 21.933594 5.011719 21.925781 5.015625 21.921875 C 5.019531 21.917969 5.023438 21.917969 5.023438 21.914062 L 9.40625 17.53125 C 9.414062 17.527344 9.417969 17.519531 9.421875 17.515625 C 9.425781 17.511719 9.425781 17.507812 9.429688 17.503906 C 9.429688 17.503906 9.433594 17.503906 9.433594 17.5 C 9.441406 17.492188 9.449219 17.476562 9.457031 17.464844 C 9.460938 17.464844 9.460938 17.460938 9.464844 17.457031 C 9.472656 17.445312 9.480469 17.429688 9.484375 17.417969 C 9.484375 17.414062 9.488281 17.414062 9.488281 17.414062 L 9.488281 17.40625 L 10.335938 15.433594 C 10.394531 15.292969 10.363281 15.128906 10.257812 15.019531 L 9.8125 14.578125 L 11.273438 13.117188 L 14.75 16.597656 L 14.449219 16.894531 C 14.390625 16.957031 14.351562 17.039062 14.34375 17.128906 L 14.058594 20.238281 C 14.050781 20.351562 14.089844 20.460938 14.167969 20.539062 L 17.421875 23.789062 C 17.492188 23.863281 17.589844 23.898438 17.6875 23.898438 C 17.78125 23.898438 17.878906 23.863281 17.949219 23.789062 L 19.363281 22.375 C 19.511719 22.230469 19.511719 21.992188 19.363281 21.847656 L 16.941406 19.425781 L 19.523438 16.84375 L 21.945312 19.265625 C 22.09375 19.410156 22.328125 19.410156 22.476562 19.265625 L 23.890625 17.851562 C 24.035156 17.703125 24.035156 17.46875 23.890625 17.320312 Z M 17.421875 3.011719 L 20.234375 1.734375 L 20.996094 2.5 L 19.71875 5.3125 L 17.628906 7.402344 L 17.042969 6.820312 L 15.914062 5.6875 L 15.328125 5.105469 Z M 15.648438 6.484375 L 16.25 7.082031 L 12.6875 10.644531 L 12.085938 10.042969 Z M 7.238281 8.554688 L 6.769531 9.023438 L 3.96875 9.277344 L 1.105469 6.414062 L 1.988281 5.53125 L 4.410156 7.953125 C 4.558594 8.097656 4.792969 8.097656 4.941406 7.953125 L 8.050781 4.839844 C 8.199219 4.695312 8.199219 4.457031 8.050781 4.3125 L 5.628906 1.890625 L 6.515625 1.003906 L 9.378906 3.867188 L 9.121094 6.667969 L 8.652344 7.140625 Z M 5.464844 14.117188 L 5.785156 14.4375 L 1.929688 18.289062 L 1.613281 17.972656 Z M 2.921875 19.28125 L 2.460938 18.820312 L 6.3125 14.96875 L 6.773438 15.425781 Z M 7.304688 15.957031 L 7.765625 16.417969 L 3.910156 20.269531 L 3.449219 19.8125 Z M 3.550781 21.890625 L 0.839844 19.179688 L 1.167969 18.589844 L 2.65625 20.074219 L 4.140625 21.5625 Z M 4.757812 21.117188 L 4.441406 20.800781 L 8.292969 16.945312 L 8.613281 17.265625 Z M 9.015625 16.609375 L 7.570312 15.164062 C 7.570312 15.164062 7.570312 15.164062 7.570312 15.160156 C 7.570312 15.160156 7.566406 15.160156 7.566406 15.160156 L 6.121094 13.714844 L 7.359375 13.183594 L 9.546875 15.371094 Z M 9.285156 14.046875 L 8.683594 13.445312 L 10.144531 11.988281 L 10.742188 12.589844 Z M 11.539062 12.324219 L 10.40625 11.191406 L 8.035156 8.816406 L 8.917969 7.933594 L 12.421875 11.4375 L 16.164062 15.183594 L 15.28125 16.066406 Z M 22.210938 18.46875 L 19.789062 16.046875 C 19.644531 15.902344 19.40625 15.902344 19.257812 16.046875 L 16.148438 19.160156 C 16 19.304688 16 19.542969 16.148438 19.6875 L 18.570312 22.109375 L 17.6875 22.996094 L 14.824219 20.132812 L 15.078125 17.332031 L 15.546875 16.859375 L 17.429688 14.976562 L 20.230469 14.722656 L 23.09375 17.585938 Z M 22.210938 18.46875"/>
</svg>

<svg xmlns="http://www.w3.org/2000/svg" width="32" height="32" viewBox="0 0 24 24">
    <path d="M23.89 17.32l-3.253-3.254a.366.366 0 0 0-.297-.105l-3.113.281a.376.376 0 0 0-.23.11l-.302.3-3.476-3.476 3.558-3.563.586.582a.365.365 0 0 0 .527 0l2.407-2.402a.34.34 0 0 0 .074-.11l1.414-3.113a.37.37 0 0 0-.074-.418L20.578 1.02a.37.37 0 0 0-.418-.075L17.047 2.36a.416.416 0 0 0-.11.075L14.535 4.84a.368.368 0 0 0 0 .527l.582.586-3.558 3.559-2.11-2.11.301-.297a.372.372 0 0 0 .105-.234l.286-3.11a.39.39 0 0 0-.11-.3L6.781.21a.373.373 0 0 0-.531 0L4.836 1.625a.368.368 0 0 0 0 .527l2.422 2.422-2.582 2.582-2.422-2.422a.38.38 0 0 0-.531 0L.309 6.148a.38.38 0 0 0 0 .532l3.254 3.254c.07.07.164.109.265.109.012 0 .024 0 .035-.004l3.11-.281a.376.376 0 0 0 .23-.11l.3-.3 2.11 2.109-1.46 1.461-.442-.441a.38.38 0 0 0-.414-.082l-1.973.847h-.008c0 .004-.003.004-.007.004l-.024.012c-.004.004-.008.008-.012.008l-.02.011a64.74 64.74 0 0 1-.027.023c-.007.005-.011.013-.019.016l-.008.008-4.383 4.383c0 .004-.003.004-.007.008s-.008.012-.016.015a.054.054 0 0 1-.012.016.03.03 0 0 1-.008.016c-.003.008-.011.011-.015.02 0 .003-.004.007-.004.007l-.004.008-.703 1.265a.379.379 0 0 0 .062.45l3.114 3.11a.377.377 0 0 0 .445.062l1.273-.707c.004 0 .004-.004.008-.004.008-.004.016-.008.02-.016.008 0 .011-.004.015-.008A.054.054 0 0 1 5 21.937l.016-.015c.004-.004.007-.004.007-.008l4.383-4.383c.008-.004.012-.011.016-.015s.004-.008.008-.012c0 0 .004 0 .004-.004.007-.008.015-.023.023-.035.004 0 .004-.004.008-.008a.182.182 0 0 0 .02-.039c0-.004.003-.004.003-.004v-.008l.848-1.972a.386.386 0 0 0-.078-.414l-.445-.442 1.46-1.46 3.477 3.48-.3.297a.393.393 0 0 0-.106.234l-.285 3.11a.385.385 0 0 0 .109.3l3.254 3.25c.07.074.168.11.265.11a.36.36 0 0 0 .262-.11l1.414-1.414a.368.368 0 0 0 0-.527l-2.422-2.422 2.582-2.582 2.422 2.422a.38.38 0 0 0 .532 0l1.414-1.414a.38.38 0 0 0 0-.532zM17.423 3.012l2.812-1.278.762.766-1.277 2.813-2.09 2.09-.586-.583-1.129-1.133-.586-.582zm-1.774 3.472l.602.598-3.563 3.563-.601-.602zm-8.41 2.07l-.468.47-2.801.253-2.864-2.863.883-.883L4.41 7.953a.38.38 0 0 0 .531 0l3.11-3.113a.368.368 0 0 0 0-.527L5.629 1.89l.887-.887 2.863 2.863-.258 2.801-.469.473zm-1.773 5.563l.32.32L1.93 18.29l-.317-.316zm-2.543 5.164l-.461-.46 3.852-3.852.46.457zm4.383-3.324l.46.461L3.91 20.27l-.46-.457zM3.55 21.891L.84 19.18l.328-.59 1.488 1.484 1.485 1.488zm1.207-.774l-.317-.316 3.852-3.856.32.32zm4.258-4.508L7.57 15.164v-.004h-.004l-1.445-1.445 1.238-.531 2.188 2.187zm.27-2.562l-.602-.602 1.46-1.457.598.602zm2.253-1.723l-1.133-1.133-2.37-2.375.882-.882 3.504 3.503 3.742 3.747-.883.882zm10.672 6.145l-2.422-2.422a.38.38 0 0 0-.531 0l-3.11 3.113a.368.368 0 0 0 0 .527l2.422 2.422-.883.887-2.863-2.863.254-2.801.469-.473 1.883-1.882 2.8-.254 2.864 2.863zm0 0"/>
</svg>
